X:247
T:B247-  Joan's ale is new
Q:1/4=120
L:1/4
M:6/4
K:F
F|FFfe2d|c3B2B|B3A2A|A3G2F|\
FFfe2f|g3e2c|deff2e|(f3f2)||f|\
f2fe2e|dddc2A|BABc2c|c2AF2F|\
F2fe2f|g2fe2c|deff2e|(f3f2)c|\
f3e2d|c2BA2F|B3c2c|(f3f2)|]
